X:84
T: Der Jaeger
N: A0436
O: Europa, Mitteleuropa, Deutschland
N: Gassenhawerlein 1535 No. 7.
R: Romanze, Ballade, Lied, Jaegerlied
M: 4/2
L: 1/4
K: F
F2A2B2 | c2d2c4 | A3B
c2d2- | d2c2B4 | A8 | z2
c2c2c2 | c2d2B4 | c4
c4 | d4c2B2- | B2A2G4 | F8 | z2

